X: 2023
T: Castle Island Holiday
R: reel
C: Rick Gagne
N: 1988 on whistle
N: no G or G sharp notes
Q: 1/4=175 
M: 4/4
K: F#m
ce | "F#m"fecB AF~F2 | "D"AF~F2 c2f2 | "Bm"fedc BcAc | "D"BcAF "E"ecec | 
"F#m"fecB AF~F2 | "D"AF~F2 c2f2 | "A"edcA "Bm"BdcB | "D"AFFE "F#m"F2 :|
fc | "E"eB~B2 cBAB | "C#m"EB~B2 cBAB | "F#m"fcBc dcBc | "D"FcBc dcBc | 
"E"eB~B2 cBAB | "C#m"EB~B2 cBAB | "F#m"fecf ecfe |1 "C#m"cBAc "D"f2 :|\
[2 "C#m"cBAc "E"e2 ||
